assets/images/instagram.svg

<svg width="36" height="35" viewBox="0 0 36 35" fill="none" xmlns="http://www.w3.org/2000/svg">
<path d="M17.9818 34.4544C8.60583 34.4544 0.950195 26.7109 0.950195 17.2272C0.950195 7.74355 8.60583 0 17.9818 0C27.3578 0 35.0135 7.74355 35.0135 17.2272C35.0135 26.7109 27.3578 34.4544 17.9818 34.4544ZM17.9818 1.30509C9.29397 1.30509 2.24047 8.43959 2.24047 17.2272C2.24047 26.0148 9.29397 33.1493 17.9818 33.1493C26.6697 33.1493 33.7232 26.0148 33.7232 17.2272C33.7232 8.43959 26.6697 1.30509 17.9818 1.30509Z" fill="white"/>
<path d="M17.982 9.7449C20.3906 9.7449 20.6486 9.7449 21.5948 9.83191C22.455 9.83191 22.9711 10.0059 23.2292 10.1799C23.6593 10.3539 23.9173 10.528 24.2614 10.876C24.6055 11.224 24.7775 11.485 24.9495 11.92C25.0355 12.2681 25.2076 12.7031 25.2936 13.5732C25.2936 14.5302 25.3796 14.7912 25.3796 17.2274C25.3796 19.6636 25.3796 19.9246 25.2936 20.8816C25.2936 21.7517 25.1216 22.2737 24.9495 22.5347C24.7775 22.9698 24.6055 23.2308 24.2614 23.5788C23.9173 23.9268 23.6593 24.1008 23.2292 24.2749C22.8851 24.3619 22.455 24.5359 21.5948 24.6229C20.6486 24.7099 20.3906 24.7099 17.982 24.7099C15.5735 24.7099 15.3155 24.7099 14.3693 24.6229C13.5091 24.6229 12.993 24.4489 12.7349 24.2749C12.3048 24.1008 12.0468 23.9268 11.7027 23.5788C11.3586 23.2308 11.1866 22.9698 11.0146 22.5347C10.9285 22.1867 10.7565 21.7517 10.6705 20.8816C10.5845 19.9246 10.5845 19.6636 10.5845 17.2274C10.5845 14.7912 10.5845 14.5302 10.6705 13.5732C10.6705 12.7031 10.8425 12.1811 11.0146 11.92C11.1866 11.485 11.3586 11.224 11.7027 10.876C12.0468 10.528 12.3048 10.3539 12.7349 10.1799C13.079 10.0929 13.5091 9.91892 14.3693 9.83191C15.3155 9.7449 15.5735 9.7449 17.982 9.7449ZM17.982 8.0918C15.5735 8.0918 15.2295 8.0918 14.2833 8.1788C13.337 8.26581 12.6489 8.35281 12.1328 8.61383C11.5307 8.87485 11.0146 9.13587 10.5845 9.6579C10.0684 10.1799 9.8103 10.702 9.55224 11.224C9.29419 11.833 9.20817 12.4421 9.12215 13.3991C9.03613 14.3562 9.03613 14.7042 9.03613 17.1404C9.03613 19.5765 9.03613 19.9246 9.12215 20.8816C9.20817 21.8387 9.29419 22.5347 9.55224 23.0568C9.8103 23.6658 10.0684 24.1878 10.5845 24.6229C11.1006 25.1449 11.6167 25.4059 12.1328 25.6669C12.7349 25.928 13.337 26.015 14.2833 26.102C15.2295 26.189 15.5735 26.189 17.982 26.189C20.3906 26.189 20.7346 26.189 21.6808 26.102C22.627 26.015 23.3152 25.928 23.8313 25.6669C24.4334 25.4059 24.9495 25.1449 25.3796 24.6229C25.8957 24.1008 26.1538 23.5788 26.4118 23.0568C26.6699 22.4477 26.7559 21.8387 26.8419 20.8816C26.9279 19.9246 26.9279 19.5765 26.9279 17.1404C26.9279 14.7042 26.9279 14.3562 26.8419 13.3991C26.7559 12.4421 26.6699 11.746 26.4118 11.224C26.1538 10.615 25.8957 10.0929 25.3796 9.6579C24.8635 9.13587 24.3474 8.87485 23.8313 8.61383C23.2292 8.35281 22.627 8.26581 21.6808 8.1788C20.7346 8.1788 20.3906 8.0918 17.982 8.0918Z" fill="white"/>
<path d="M17.9819 12.5278C15.4014 12.5278 13.3369 14.616 13.3369 17.2262C13.3369 19.8364 15.4014 21.9245 17.9819 21.9245C20.5625 21.9245 22.6269 19.8364 22.6269 17.2262C22.5409 14.616 20.4764 12.5278 17.9819 12.5278ZM17.9819 20.2714C16.3476 20.2714 14.9713 18.8793 14.9713 17.2262C14.9713 15.5731 16.3476 14.181 17.9819 14.181C19.6163 14.181 20.9925 15.5731 20.9925 17.2262C20.9925 18.8793 19.6163 20.2714 17.9819 20.2714Z" fill="white"/>
<path d="M23.8312 12.3543C23.8312 12.9633 23.3151 13.4854 22.713 13.4854C22.1108 13.4854 21.5947 12.9633 21.5947 12.3543C21.5947 11.7452 22.1108 11.2231 22.713 11.2231C23.3151 11.3102 23.8312 11.7452 23.8312 12.3543Z" fill="white"/>
</svg>

<svg width="36" height="35" fill="none" xmlns="http://www.w3.org/2000/svg"><path d="M17.982 34.454C8.606 34.454.95 26.711.95 17.227.95 7.744 8.606 0 17.982 0c9.376 0 17.032 7.744 17.032 17.227 0 9.484-7.656 17.227-17.032 17.227zm0-33.149C9.294 1.305 2.24 8.44 2.24 17.227c0 8.788 7.054 15.922 15.742 15.922s15.741-7.134 15.741-15.922c0-8.787-7.053-15.922-15.741-15.922z" fill="#fff"/><path d="M17.982 9.745c2.409 0 2.667 0 3.613.087.86 0 1.376.174 1.634.348.43.174.688.348 1.032.696.345.348.517.609.689 1.044.085.348.258.783.344 1.653 0 .957.086 1.218.086 3.654 0 2.437 0 2.698-.086 3.655 0 .87-.172 1.392-.345 1.653a2.755 2.755 0 01-.688 1.044c-.344.348-.602.522-1.032.696-.344.087-.774.26-1.634.348-.946.087-1.204.087-3.613.087s-2.666 0-3.613-.087c-.86 0-1.376-.174-1.634-.348-.43-.174-.688-.348-1.032-.696a2.755 2.755 0 01-.688-1.044c-.087-.348-.258-.783-.345-1.653-.085-.957-.085-1.218-.085-3.655 0-2.436 0-2.697.085-3.654 0-.87.172-1.392.345-1.653.172-.435.344-.696.688-1.044.344-.348.602-.522 1.032-.696.344-.087.774-.261 1.634-.348.947-.087 1.204-.087 3.613-.087zm0-1.653c-2.409 0-2.752 0-3.699.087-.946.087-1.634.174-2.15.435-.602.26-1.118.522-1.548 1.044-.517.522-.775 1.044-1.033 1.566-.258.609-.344 1.218-.43 2.175-.086.957-.086 1.305-.086 3.741s0 2.785.086 3.742c.086.957.172 1.653.43 2.175.258.609.516 1.13 1.033 1.566.516.522 1.032.783 1.548 1.044.602.261 1.204.348 2.15.435.947.087 1.29.087 3.699.087s2.753 0 3.699-.087c.946-.087 1.634-.174 2.15-.435.602-.261 1.119-.522 1.549-1.044.516-.522.774-1.044 1.032-1.566.258-.61.344-1.218.43-2.175.086-.957.086-1.306.086-3.742s0-2.784-.086-3.74c-.086-.958-.172-1.654-.43-2.176-.258-.609-.516-1.131-1.032-1.566-.517-.522-1.033-.783-1.549-1.044-.602-.261-1.204-.348-2.15-.435-.946 0-1.29-.087-3.699-.087z" fill="#fff"/><path d="M17.982 12.528c-2.58 0-4.645 2.088-4.645 4.698 0 2.61 2.064 4.698 4.645 4.698 2.58 0 4.645-2.088 4.645-4.698-.086-2.61-2.15-4.698-4.645-4.698zm0 7.743c-1.634 0-3.01-1.392-3.01-3.045s1.376-3.045 3.01-3.045 3.01 1.392 3.01 3.045-1.376 3.045-3.01 3.045zm5.849-7.917c0 .61-.516 1.131-1.118 1.131-.602 0-1.118-.522-1.118-1.13 0-.61.516-1.132 1.118-1.132.602.087 1.118.522 1.118 1.131z" fill="#fff"/></svg>
